X:2
T:scales_c_minor
C:Beringer and Dunhill
M:7/4
K:Cmin treble
L:1/16
CDEF G=A=Bc defg =a=bc'_b _agfe dc_B_A GFED:|C4||
c'bag fedc BAGF EDCD EFG=A =Bcde fg=a=b:|c'4||
EFG=A =Bcde fg=a=b c'd'e'd' c'_b_ag fedc _B_AGF:|E4||
e'd'c'b agfe dcBA GFEF G=A=Bc defg =a=bc'd':|e'4||
CDEF GA=Bc defg a=bc'=b agfe dc=BA GFED:|C4||
EFGA =Bcde fga=b c'd'e'd' c'=bag fedc =BAGF:|E4||

